!!!SOCIAL_FUNCTION:	songs of social dance
!!!PDT:	1939
!!!OTL: No_82_Song_After_Feast.krn
!!!LANG: Non-Tone
!!!LING_GROUP: Wakashan
!!!REG: Pacific Northwest
**kern
*staff1
=1-
*clefF4
*k[f#]
*M3/4
2r
8.G\L
16c\Jk
=2
[2.c\
=3
8.c\L]
16d\Jk
4c\
8c\
8r
=4
4.c\
8c\
8c\
8r
=5
12c\L
12G\
12c\J
12c\L
12G\
12G\J
8G\
16r
16G\
=6
8.c\L
16c\Jk
12c\L
12G\
12G\J
8G\L
16G\L
16G\JJ
=7||
*M2/4
12G\L
12G\
12G\J
8G\
8r
=8||
*M3/4
8.G\L
16B\Jk
4G\
4r
=9
[2c\
8.c\L]
16d\Jk
=10||
*M2/4
4c\
8c\
16r
16d\
=11||
*M3/4
4c\
8r
8c\
4c\
=12
12c\L
12G\
12c\J
12c\L
12G\
12G\J
8G\
16r
16G\
=13
8.c\L
16c\Jk
12c\L
12G\
12G\J
8G\L
16G\L
16G\JJ
=14||
*M2/4
12G\L
12G\
12G\J
8G\
8r
=15
8.G\L
16B\Jk
4G\
==
*-
